packages/components/src/components/icon/rebranding/ic-rebranding-deriv-trader.svg

<svg viewBox="0 0 345 72" fill="none" xmlns="http://www.w3.org/2000/svg"><path d="M0 13.5C0 6.04416 6.04416 0 13.5 0H58.5C65.9558 0 72 6.04416 72 13.5V58.5C72 65.9558 65.9558 72 58.5 72H13.5C6.04416 72 0 65.9558 0 58.5V13.5Z" fill="#FF444F"/><path d="M13.5 0C6.04416 0 0 6.04416 0 13.5V13.8921L67.3075 3.26845C64.9433 1.2315 61.8655 0 58.5 0H13.5Z" fill="#E12E3A"/><path d="M68.6969 4.65243L56.3498 71.9999L58.5 72C65.9558 72 72 65.9558 72 58.5V13.5C72 10.1155 70.7545 7.02183 68.6969 4.65243Z" fill="#E12E3A"/><path d="M22.3632 42.8984C22.5942 42.9194 22.8567 42.9404 23.1507 42.9614C23.4657 42.9614 23.8332 42.9614 24.2532 42.9614C26.7102 42.9614 28.5267 42.3419 29.7027 41.1029C30.8997 39.8639 31.4982 38.1524 31.4982 35.9684C31.4982 33.6794 30.9312 31.9469 29.7972 30.7709C28.6632 29.5949 26.8677 29.0069 24.4107 29.0069C24.0747 29.0069 23.7282 29.0174 23.3712 29.0384C23.0142 29.0384 22.6782 29.0594 22.3632 29.1014V42.8984ZM36.5697 35.9684C36.5697 37.8584 36.2757 39.5069 35.6877 40.9139C35.0997 42.3209 34.2597 43.4864 33.1677 44.4104C32.0967 45.3344 30.7842 46.0274 29.2302 46.4894C27.6762 46.9514 25.9332 47.1824 24.0012 47.1824C23.1192 47.1824 22.0902 47.1404 20.9142 47.0564C19.7382 46.9934 18.5832 46.8464 17.4492 46.6154V25.3529C18.5832 25.1429 19.7592 25.0064 20.9772 24.9434C22.2162 24.8594 23.2767 24.8174 24.1587 24.8174C26.0277 24.8174 27.7182 25.0274 29.2302 25.4474C30.7632 25.8674 32.0757 26.5289 33.1677 27.4319C34.2597 28.3349 35.0997 29.4899 35.6877 30.8969C36.2757 32.3039 36.5697 33.9944 36.5697 35.9684Z" fill="#fff"/><path d="M54.552 25.0694V29.2589H47.9685V46.8989H43.0545V29.2589H36.471V25.0694H54.552Z" fill="#fff"/><path fill-rule="evenodd" clip-rule="evenodd" d="M108.739 19.9043L106.967 29.9551H100.815C95.0752 29.9551 89.6045 34.6053 88.5905 40.3448L88.1614 42.7878C87.1521 48.5273 90.9816 53.1775 96.7211 53.1775H101.852C106.035 53.1775 110.02 49.7912 110.756 45.6081L115.482 18.8203L108.739 19.9043ZM104.374 44.6601C104.147 45.9523 102.984 47.0041 101.692 47.0041H98.5745C95.9948 47.0041 94.2687 44.91 94.7214 42.3256L94.9903 40.8023C95.4477 38.2225 97.9095 36.1238 100.489 36.1238H105.879L104.374 44.6601Z" fill="currentColor"/><path d="M156.118 53.1791H162.503L166.54 30.2774H160.155L156.118 53.1791Z" fill="currentColor"/><path d="M156.331 33.263L156.331 33.2578C156.491 32.3523 156.651 31.4468 156.811 30.5413C150.259 28.853 145.155 30.5996 143.077 31.4602C143.077 31.4602 140.112 48.2642 139.245 53.1846H145.634C146.671 47.304 147.708 41.422 148.744 35.5414C149.703 35.3501 152.824 35.0508 155.849 35.9909C156.009 35.0816 156.17 34.1723 156.331 33.263Z" fill="currentColor"/><path fill-rule="evenodd" clip-rule="evenodd" d="M130.914 29.9528H125.948C121.104 29.9528 116.487 33.8766 115.634 38.7201L114.629 44.4125C113.776 49.2559 117.006 53.1799 121.85 53.1799H132.423L133.508 47.0253H123.571C121.958 47.0253 120.878 45.7188 121.166 44.1012L121.199 43.9078H137.219L138.134 38.7201C138.988 33.8766 135.757 29.9528 130.914 29.9528ZM131.725 38.2296L131.687 38.5597H122.161L122.213 38.2673C122.5 36.6544 123.972 35.2349 125.589 35.2349H129.31C130.909 35.2349 131.989 36.6308 131.725 38.2296Z" fill="currentColor"/><path d="M177.639 45.3831C180.538 40.167 183.734 33.3233 185.066 30.2774H191.461C189.284 36.0649 184.296 45.9099 179.463 53.1791H173.073C170.855 46.2606 169.423 36.6207 169.149 30.2774H175.54C175.655 32.3466 176.581 40.0214 177.639 45.3831Z" fill="currentColor"/><path d="M224.066 21.258V27.5423H214.19V54.0023H206.819V27.5423H196.944V21.258H224.066Z" fill="currentColor"/><path d="M237.67 35.3858C237.04 35.2283 236.3 35.0708 235.449 34.9133C234.599 34.7243 233.685 34.6298 232.709 34.6298C232.268 34.6298 231.732 34.677 231.102 34.7715C230.504 34.8345 230.047 34.9133 229.732 35.0078V54.0023H222.692V30.4718C223.952 30.0308 225.432 29.6213 227.133 29.2433C228.866 28.8338 230.787 28.629 232.898 28.629C233.276 28.629 233.732 28.6605 234.268 28.7235C234.803 28.755 235.339 28.818 235.874 28.9125C236.41 28.9755 236.945 29.07 237.481 29.196C238.016 29.2905 238.473 29.4165 238.851 29.574L237.67 35.3858Z" fill="currentColor"/><path d="M249.299 49.0883C249.992 49.0883 250.653 49.0725 251.283 49.041C251.913 49.0095 252.417 48.9623 252.795 48.8993V43.56C252.512 43.497 252.086 43.434 251.519 43.371C250.952 43.308 250.433 43.2765 249.96 43.2765C249.299 43.2765 248.669 43.3238 248.07 43.4183C247.503 43.4813 246.999 43.623 246.558 43.8435C246.117 44.064 245.771 44.3633 245.519 44.7413C245.267 45.1193 245.141 45.5918 245.141 46.1588C245.141 47.2613 245.503 48.033 246.227 48.474C246.983 48.8835 248.007 49.0883 249.299 49.0883ZM248.732 28.4873C250.811 28.4873 252.543 28.7235 253.929 29.196C255.315 29.6685 256.418 30.3458 257.237 31.2278C258.087 32.1098 258.686 33.1808 259.032 34.4408C259.379 35.7008 259.552 37.1025 259.552 38.646V53.2935C258.544 53.514 257.142 53.766 255.347 54.0495C253.551 54.3645 251.378 54.522 248.826 54.522C247.22 54.522 245.755 54.3803 244.432 54.0968C243.14 53.8133 242.022 53.3565 241.077 52.7265C240.132 52.065 239.408 51.2145 238.904 50.175C238.4 49.1355 238.148 47.8598 238.148 46.3478C238.148 44.8988 238.431 43.6703 238.998 42.6623C239.597 41.6543 240.384 40.851 241.361 40.2525C242.337 39.654 243.455 39.2288 244.715 38.9768C245.975 38.6933 247.283 38.5515 248.637 38.5515C249.551 38.5515 250.354 38.5988 251.047 38.6933C251.771 38.7563 252.354 38.8508 252.795 38.9768V38.3153C252.795 37.1183 252.433 36.1575 251.708 35.433C250.984 34.7085 249.724 34.3463 247.928 34.3463C246.731 34.3463 245.55 34.4408 244.385 34.6298C243.219 34.7873 242.211 35.0235 241.361 35.3385L240.463 29.6685C240.872 29.5425 241.376 29.4165 241.975 29.2905C242.605 29.133 243.282 29.007 244.007 28.9125C244.731 28.7865 245.487 28.692 246.275 28.629C247.094 28.5345 247.913 28.4873 248.732 28.4873Z" fill="currentColor"/><path d="M269.556 41.3865C269.556 43.56 270.045 45.3083 271.021 46.6313C271.998 47.9543 273.447 48.6158 275.368 48.6158C275.998 48.6158 276.581 48.6 277.116 48.5685C277.652 48.5055 278.093 48.4425 278.439 48.3795V35.5748C277.998 35.2913 277.416 35.055 276.691 34.866C275.998 34.677 275.289 34.5825 274.565 34.5825C271.226 34.5825 269.556 36.8505 269.556 41.3865ZM285.48 53.199C284.85 53.388 284.125 53.577 283.306 53.766C282.487 53.9235 281.621 54.0653 280.707 54.1913C279.825 54.3173 278.912 54.4118 277.967 54.4748C277.053 54.5693 276.171 54.6165 275.321 54.6165C273.273 54.6165 271.446 54.3173 269.84 53.7188C268.233 53.1203 266.879 52.2698 265.776 51.1673C264.674 50.0333 263.823 48.6788 263.225 47.1038C262.658 45.4973 262.374 43.7018 262.374 41.7173C262.374 39.7013 262.626 37.89 263.13 36.2835C263.634 34.6455 264.359 33.2595 265.304 32.1255C266.249 30.9915 267.399 30.1253 268.753 29.5268C270.139 28.9283 271.714 28.629 273.478 28.629C274.455 28.629 275.321 28.7235 276.077 28.9125C276.864 29.1015 277.652 29.3693 278.439 29.7158V18.4702L285.48 17.3362V53.199Z" fill="currentColor"/><path d="M288.528 41.7645C288.528 39.5595 288.859 37.638 289.52 36C290.213 34.3305 291.111 32.9445 292.214 31.842C293.316 30.7395 294.576 29.9048 295.994 29.3378C297.443 28.7708 298.923 28.4873 300.435 28.4873C303.963 28.4873 306.751 29.574 308.798 31.7475C310.846 33.8895 311.87 37.0553 311.87 41.2448C311.87 41.6543 311.854 42.111 311.822 42.615C311.791 43.0875 311.759 43.5128 311.728 43.8908H295.757C295.915 45.3398 296.592 46.4895 297.789 47.34C298.986 48.1905 300.593 48.6158 302.609 48.6158C303.9 48.6158 305.16 48.5055 306.389 48.285C307.649 48.033 308.672 47.7338 309.46 47.3873L310.405 53.1045C310.027 53.2935 309.523 53.4825 308.893 53.6715C308.263 53.8605 307.554 54.018 306.767 54.144C306.011 54.3015 305.192 54.4275 304.31 54.522C303.428 54.6165 302.546 54.6638 301.664 54.6638C299.427 54.6638 297.474 54.333 295.805 53.6715C294.167 53.01 292.796 52.1123 291.694 50.9783C290.623 49.8128 289.82 48.4425 289.284 46.8675C288.78 45.2925 288.528 43.5915 288.528 41.7645ZM305.066 39.0713C305.034 38.4728 304.924 37.89 304.735 37.323C304.577 36.756 304.31 36.252 303.932 35.811C303.585 35.37 303.128 35.0078 302.561 34.7243C302.026 34.4408 301.349 34.299 300.53 34.299C299.742 34.299 299.065 34.4408 298.498 34.7243C297.931 34.9763 297.458 35.3228 297.08 35.7638C296.702 36.2048 296.403 36.7245 296.183 37.323C295.994 37.89 295.852 38.4728 295.757 39.0713H305.066Z" fill="currentColor"/><path d="M329.918 35.3858C329.288 35.2283 328.548 35.0708 327.698 34.9133C326.847 34.7243 325.934 34.6298 324.957 34.6298C324.516 34.6298 323.981 34.677 323.351 34.7715C322.752 34.8345 322.295 34.9133 321.98 35.0078V54.0023H314.94V30.4718C316.2 30.0308 317.681 29.6213 319.382 29.2433C321.114 28.8338 323.036 28.629 325.146 28.629C325.524 28.629 325.981 28.6605 326.516 28.7235C327.052 28.755 327.587 28.818 328.123 28.9125C328.658 28.9755 329.194 29.07 329.729 29.196C330.265 29.2905 330.722 29.4165 331.1 29.574L329.918 35.3858Z" fill="currentColor"/></svg>

<svg xmlns="http://www.w3.org/2000/svg" fill="none" viewBox="0 0 345 72">
    <path fill="#FF444F"
        d="M0 13.5C0 6.044 6.044 0 13.5 0h45C65.956 0 72 6.044 72 13.5v45C72 65.956 65.956 72 58.5 72h-45C6.044 72 0 65.956 0 58.5v-45Z" />
    <path fill="#E12E3A"
        d="M13.5 0C6.044 0 0 6.044 0 13.5v.392L67.308 3.268A13.447 13.447 0 0 0 58.5 0h-45Zm55.197 4.652L56.35 72h2.15C65.956 72 72 65.956 72 58.5v-45c0-3.384-1.246-6.478-3.303-8.848Z" />
    <path fill="#fff"
        d="M22.363 42.898c.231.021.494.042.788.063h1.102c2.457 0 4.274-.62 5.45-1.858 1.197-1.24 1.795-2.95 1.795-5.135 0-2.289-.567-4.021-1.7-5.197-1.135-1.176-2.93-1.764-5.387-1.764-.336 0-.683.01-1.04.031-.357 0-.693.021-1.008.063v13.797Zm14.207-6.93c0 1.89-.294 3.539-.882 4.946-.588 1.407-1.428 2.572-2.52 3.496-1.071.924-2.384 1.617-3.938 2.08-1.554.461-3.297.692-5.229.692-.882 0-1.91-.042-3.087-.126a23.682 23.682 0 0 1-3.465-.44V25.352c1.134-.21 2.31-.347 3.528-.41 1.24-.084 2.3-.126 3.182-.126 1.869 0 3.56.21 5.071.63 1.533.42 2.846 1.082 3.938 1.985s1.932 2.058 2.52 3.465c.588 1.407.882 3.097.882 5.071ZM54.552 25.07v4.189h-6.584v17.64h-4.914v-17.64h-6.583v-4.19h18.081Z" />
    <path fill="var(--text-general)" fill-rule="evenodd"
        d="m108.739 19.904-1.772 10.051h-6.152c-5.74 0-11.21 4.65-12.224 10.39l-.43 2.443c-1.009 5.74 2.82 10.39 8.56 10.39h5.131c4.183 0 8.168-3.387 8.904-7.57l4.726-26.788-6.743 1.084Zm-4.365 24.756c-.227 1.292-1.39 2.344-2.682 2.344h-3.117c-2.58 0-4.306-2.094-3.854-4.678l.27-1.524c.457-2.58 2.918-4.678 5.498-4.678h5.39l-1.505 8.536Z"
        clip-rule="evenodd" />
    <path fill="var(--text-general)"
        d="M156.118 53.18h6.385l4.037-22.903h-6.385l-4.037 22.902Zm.213-19.917v-.005l.48-2.717c-6.552-1.688-11.656.059-13.734.92 0 0-2.965 16.803-3.832 21.724h6.389l3.11-17.644c.959-.19 4.08-.49 7.105.45l.482-2.728Z" />
    <path fill="var(--text-general)" fill-rule="evenodd"
        d="M130.914 29.953h-4.966c-4.844 0-9.461 3.924-10.314 8.767l-1.005 5.693c-.853 4.843 2.377 8.767 7.221 8.767h10.573l1.085-6.155h-9.937c-1.613 0-2.693-1.306-2.405-2.924l.033-.193h16.02l.915-5.188c.854-4.843-2.377-8.767-7.22-8.767Zm.811 8.277-.038.33h-9.526l.052-.293c.287-1.613 1.759-3.032 3.376-3.032h3.721c1.599 0 2.679 1.396 2.415 2.995Z"
        clip-rule="evenodd" />
    <path fill="var(--text-general)"
        d="M177.639 45.383c2.899-5.216 6.095-12.06 7.427-15.106h6.395c-2.177 5.788-7.165 15.633-11.998 22.902h-6.39c-2.218-6.918-3.65-16.558-3.924-22.902h6.391c.115 2.07 1.041 9.744 2.099 15.106Zm46.427-24.125v6.284h-9.876v26.46h-7.371v-26.46h-9.875v-6.284h27.122Z" />
    <path fill="var(--text-general)"
        d="M237.67 35.386c-.63-.158-1.37-.315-2.221-.473a12.613 12.613 0 0 0-2.74-.283c-.441 0-.977.047-1.607.142-.598.063-1.055.141-1.37.236v18.994h-7.04v-23.53c1.26-.441 2.74-.85 4.441-1.229 1.733-.41 3.654-.614 5.765-.614.378 0 .834.031 1.37.095.535.031 1.071.094 1.606.189.536.063 1.071.157 1.607.283.535.095.992.22 1.37.378l-1.181 5.812Zm11.629 13.702c.693 0 1.354-.016 1.984-.047a13.81 13.81 0 0 0 1.512-.142V43.56a12.981 12.981 0 0 0-1.276-.189 14.196 14.196 0 0 0-1.559-.095c-.661 0-1.291.048-1.89.142a4.456 4.456 0 0 0-1.512.425c-.441.221-.787.52-1.039.898-.252.378-.378.85-.378 1.418 0 1.102.362 1.874 1.086 2.315.756.41 1.78.614 3.072.614Zm-.567-20.6c2.079 0 3.811.236 5.197.708 1.386.473 2.489 1.15 3.308 2.032.85.882 1.449 1.953 1.795 3.213.347 1.26.52 2.661.52 4.205v14.648c-1.008.22-2.41.472-4.205.756-1.796.315-3.969.472-6.521.472-1.606 0-3.071-.142-4.394-.425-1.292-.284-2.41-.74-3.355-1.37a6.555 6.555 0 0 1-2.173-2.552c-.504-1.04-.756-2.315-.756-3.827 0-1.45.283-2.678.85-3.686a6.926 6.926 0 0 1 2.363-2.41c.976-.598 2.094-1.023 3.354-1.275a17.82 17.82 0 0 1 3.922-.425c.914 0 1.717.047 2.41.141.724.063 1.307.158 1.748.284v-.662c0-1.197-.362-2.157-1.087-2.882-.724-.724-1.984-1.087-3.78-1.087-1.197 0-2.378.095-3.543.284-1.166.157-2.174.393-3.024.709l-.898-5.67c.409-.127.913-.253 1.512-.378.63-.158 1.307-.284 2.032-.378.724-.127 1.48-.221 2.268-.284a21.418 21.418 0 0 1 2.457-.142Zm20.824 12.898c0 2.174.489 3.922 1.465 5.245.977 1.323 2.426 1.985 4.347 1.985.63 0 1.213-.016 1.748-.047.536-.064.977-.127 1.323-.19V35.575c-.441-.284-1.023-.52-1.748-.709a8.046 8.046 0 0 0-2.126-.283c-3.339 0-5.009 2.267-5.009 6.803ZM285.48 53.2c-.63.189-1.355.378-2.174.567-.819.157-1.685.3-2.599.425-.882.126-1.795.22-2.74.284-.914.094-1.796.142-2.646.142-2.048 0-3.875-.3-5.481-.898-1.607-.599-2.961-1.45-4.064-2.552-1.102-1.134-1.953-2.488-2.551-4.063-.567-1.607-.851-3.402-.851-5.387 0-2.016.252-3.827.756-5.434.504-1.638 1.229-3.023 2.174-4.157a9.352 9.352 0 0 1 3.449-2.6c1.386-.598 2.961-.897 4.725-.897.977 0 1.843.095 2.599.284.787.189 1.575.456 2.362.803V18.47l7.041-1.134V53.2Zm3.048-11.436c0-2.205.331-4.126.992-5.764.693-1.67 1.591-3.056 2.694-4.158a11.153 11.153 0 0 1 3.78-2.504 12.09 12.09 0 0 1 4.441-.85c3.528 0 6.316 1.086 8.363 3.26 2.048 2.141 3.072 5.307 3.072 9.497 0 .41-.016.866-.048 1.37a78.32 78.32 0 0 1-.094 1.276h-15.971c.158 1.449.835 2.599 2.032 3.449 1.197.85 2.804 1.276 4.82 1.276 1.291 0 2.551-.11 3.78-.331 1.26-.252 2.283-.551 3.071-.898l.945 5.718c-.378.189-.882.378-1.512.567-.63.189-1.339.346-2.126.472-.756.157-1.575.284-2.457.378a24.82 24.82 0 0 1-2.646.142c-2.237 0-4.19-.331-5.859-.992-1.638-.662-3.009-1.56-4.111-2.694-1.071-1.165-1.874-2.535-2.41-4.11-.504-1.576-.756-3.276-.756-5.104Zm16.538-2.693a6.621 6.621 0 0 0-.331-1.748 3.903 3.903 0 0 0-.803-1.512c-.347-.441-.804-.803-1.371-1.087-.535-.283-1.212-.425-2.031-.425-.788 0-1.465.142-2.032.425a3.949 3.949 0 0 0-1.418 1.04c-.378.44-.677.96-.897 1.559-.189.567-.331 1.15-.426 1.748h9.309Zm24.852-3.685a37.28 37.28 0 0 0-2.22-.473 12.623 12.623 0 0 0-2.741-.283c-.441 0-.976.047-1.606.142-.599.063-1.056.141-1.371.236v18.994h-7.04v-23.53c1.26-.441 2.741-.85 4.442-1.229 1.732-.41 3.654-.614 5.764-.614.378 0 .835.031 1.37.095a13.96 13.96 0 0 1 1.607.189 14.3 14.3 0 0 1 1.606.283c.536.095.993.22 1.371.378l-1.182 5.812Z" />
</svg>
